src/icons/qbittorrent_mac.svg

<svg height="1024" viewBox="0 0 1024 1024" width="1024" xmlns="http://www.w3.org/2000/svg" xmlns:xlink="http://www.w3.org/1999/xlink"><defs><path id="a" d="m824 256.627066c0-9.781965 0-19.564929-.056099-29.347893-.048999-8.24097-.143999-16.47994-.367997-24.71691-.483996-17.952935-1.542989-36.059869-4.735965-53.812805-3.237976-18.008934-8.525937-34.769873-16.858875-51.1328134-8.19194-16.0829414-18.89286-30.7998879-31.660766-43.5588414-12.764905-12.7589536-27.485796-23.4529146-43.574677-31.6398848-16.379879-8.3349697-33.158755-13.62095043-51.187621-16.85793864-17.754869-3.1879884-35.866735-4.24498455-53.819602-4.72998278-8.242939-.22299919-16.485878-.31699885-24.730817-.36799866-9.787928-.05999978-19.575855-.0549998-29.363783-.0549998l-113.647158-.40699852h-84.999371l-111.636174.40699852c-9.806927 0-19.613855-.00499998-29.420782.0549998-8.261939.05099981-16.519878.14499947-24.778817.36799866-17.994867.48499823-36.147732 1.54299438-53.9446 4.73498276-18.052867 3.23598822-34.856742 8.51996896-51.2586211 16.84893866-16.1228806 8.1879702-30.8757714 18.8829312-43.6676768 31.6438848-12.7899053 12.7579535-23.5108259 27.4719-31.7177652 43.5518414-8.3559381 16.3709404-13.65389892 33.1418794-16.89987489 51.1608134-3.19597634 17.745936-4.25496851 35.84687-4.7419649 53.791805-.22199836 8.23797-.31799765 16.47694-.36799728 24.71691-.05999955 9.783964-.56299583 21.93692-.56299583 31.719884v110.089599 85.909687l.50799624 112.428591c0 9.795964-.00399997 19.591929.05499959 29.387893.04999963 8.25197.14599892 16.50194.36899727 24.75091.4859964 17.975935 1.54698855 36.108869 4.74596487 53.885804 3.24497598 18.032934 8.54193673 34.817873 16.89087493 51.201813 8.2079393 16.105942 18.9308599 30.841888 31.7217652 43.618842 12.7909054 12.776953 27.5397962 23.484914 43.6596769 31.683884 16.411878 8.34597 33.223754 13.638951 51.28762 16.879939 17.788869 3.192988 35.935734 4.251984 53.923601 4.736983 8.258939.222999 16.517878.317998 24.779817.367998 9.806927.059 19.612855.059 29.419782.059h112.645166 85.21037 112.427167c9.787928 0 19.575855 0 29.363783-.059 8.244939-.05 16.487878-.144999 24.730817-.367998 17.959867-.485999 36.077733-1.545995 53.840601-4.740983 18.017867-3.240988 34.788743-8.531969 51.159622-16.872939 16.091881-8.19797 30.815772-18.907931 43.581677-31.686884 12.765906-12.774954 23.465826-27.5089 31.657766-43.611842 8.337938-16.39194 13.625899-33.184879 16.865875-51.229813 3.189976-17.769935 4.247969-35.895869 4.732965-53.864804.222998-8.24997.317998-16.49994.366997-24.75091.056099-9.795964.056099-19.591929.056099-29.387893 0 0 0-110.443598 0-112.428591v-85.999686c0-1.465995 0-112.371591 0-112.371591"/><filter id="b" height="104.9%" width="104.9%" x="-2.4%" y="-1.2%"><feOffset dx="0" dy="10" in="SourceAlpha" result="shadowOffsetOuter1"/><feGaussianBlur in="shadowOffsetOuter1" result="shadowBlurOuter1" stdDeviation="5"/><feColorMatrix in="shadowBlurOuter1" type="matrix" values="0 0 0 0 0   0 0 0 0 0   0 0 0 0 0  0 0 0 0.3 0"/></filter><linearGradient id="c" x1="50%" x2="50%" y1="0%" y2="100%"><stop offset="0" stop-color="#fff"/><stop offset="1" stop-color="#fff"/></linearGradient><linearGradient id="d" x1="25.126082%" x2="67.48708%" y1="4.900938%" y2="81.705936%"><stop offset="0" stop-color="#72b3f4"/><stop offset="1" stop-color="#346ebf"/></linearGradient><path id="e" d="m824 256.627066c0-9.781965 0-19.564929-.056099-29.347893-.048999-8.24097-.143999-16.47994-.367997-24.71691-.483996-17.952935-1.542989-36.059869-4.735965-53.812805-3.237976-18.008934-8.525937-34.769873-16.858875-51.1328134-8.19194-16.0829414-18.89286-30.7998879-31.660766-43.5588414-12.764905-12.7589536-27.485796-23.4529146-43.574677-31.6398848-16.379879-8.3349697-33.158755-13.62095043-51.187621-16.85793864-17.754869-3.1879884-35.866735-4.24498455-53.819602-4.72998278-8.242939-.22299919-16.485878-.31699885-24.730817-.36799866-9.787928-.05999978-19.575855-.0549998-29.363783-.0549998l-113.647158-.40699852h-84.999371l-111.636174.40699852c-9.806927 0-19.613855-.00499998-29.420782.0549998-8.261939.05099981-16.519878.14499947-24.778817.36799866-17.994867.48499823-36.147732 1.54299438-53.9446 4.73498276-18.052867 3.23598822-34.856742 8.51996896-51.2586211 16.84893866-16.1228806 8.1879702-30.8757714 18.8829312-43.6676768 31.6438848-12.7899053 12.7579535-23.5108259 27.4719-31.7177652 43.5518414-8.3559381 16.3709404-13.65389892 33.1418794-16.89987489 51.1608134-3.19597634 17.745936-4.25496851 35.84687-4.7419649 53.791805-.22199836 8.23797-.31799765 16.47694-.36799728 24.71691-.05999955 9.783964-.56299583 21.93692-.56299583 31.719884v110.089599 85.909687l.50799624 112.428591c0 9.795964-.00399997 19.591929.05499959 29.387893.04999963 8.25197.14599892 16.50194.36899727 24.75091.4859964 17.975935 1.54698855 36.108869 4.74596487 53.885804 3.24497598 18.032934 8.54193673 34.817873 16.89087493 51.201813 8.2079393 16.105942 18.9308599 30.841888 31.7217652 43.618842 12.7909054 12.776953 27.5397962 23.484914 43.6596769 31.683884 16.411878 8.34597 33.223754 13.638951 51.28762 16.879939 17.788869 3.192988 35.935734 4.251984 53.923601 4.736983 8.258939.222999 16.517878.317998 24.779817.367998 9.806927.059 19.612855.059 29.419782.059h112.645166 85.21037 112.427167c9.787928 0 19.575855 0 29.363783-.059 8.244939-.05 16.487878-.144999 24.730817-.367998 17.959867-.485999 36.077733-1.545995 53.840601-4.740983 18.017867-3.240988 34.788743-8.531969 51.159622-16.872939 16.091881-8.19797 30.815772-18.907931 43.581677-31.686884 12.765906-12.774954 23.465826-27.5089 31.657766-43.611842 8.337938-16.39194 13.625899-33.184879 16.865875-51.229813 3.189976-17.769935 4.247969-35.895869 4.732965-53.864804.222998-8.24997.317998-16.49994.366997-24.75091.056099-9.795964.056099-19.591929.056099-29.387893 0 0 0-110.443598 0-112.428591v-85.999686c0-1.465995 0-112.371591 0-112.371591"/><mask id="f" fill="#fff"><use fill="#fff" fill-rule="evenodd" xlink:href="#a"/></mask></defs><g fill="none" fill-rule="evenodd" transform="translate(100 100)"><use fill="#000" filter="url(#b)" xlink:href="#a"/><use fill="#fff" fill-rule="evenodd" xlink:href="#a"/><g mask="url(#f)"><use fill="url(#c)" xlink:href="#e"/><use fill="url(#d)" stroke="#daefff" stroke-width="64" xlink:href="#e"/></g><g mask="url(#f)"><g transform="translate(154 172)"><path d="m404.594413 136.280703c-26.40678 0-45.434551 7.611561-57.084823 22.833929-11.650273 15.067585-17.475409 40.542645-17.475409 76.424426 0 35.881782 5.980675 61.59015 17.941268 77.123594 11.960594 15.377906 31.143904 23.066482 57.549929 23.066482 23.767159 0 41.47512-8.62105 53.125392-25.863151 11.649517-17.397639 17.474653-42.327561 17.474653-74.792784 0-33.242161-5.825136-58.018054-17.474653-74.32768-11.650272-16.309626-29.66931-24.464816-54.056357-24.464816m5.591829-32.3867c33.552482 0 59.571171 11.494734 78.056068 34.483447 18.639681 22.834684 27.958388 55.221384 27.958388 97.161608 0 41.940225-9.397231 74.560232-28.19245 97.860777-18.639681 23.145006-44.579846 34.716754-77.822006 34.716754-16.620703 0-31.843826-3.029222-45.667859-9.086911-13.670005-6.213226-25.163984-15.688982-34.484202-28.426513h-2.795914l-8.154436 32.853315h-27.728855v-362.54922193h38.679205v88.07545363c0 19.7269383-.621398 37.4348993-1.864194 53.1238823h1.864949c18.018283-25.475061 44.735384-38.212591 80.151306-38.212591" fill="#fff"/><path d="m105.648203 368.116438c-32.9303291 0-58.637942-11.571748-77.1228392-34.715999-18.4848972-23.145761-27.72734576-55.455447-27.72734576-96.929812 0-41.783931 9.32021776-74.403938 27.96065326-97.860021 18.6396804-23.455328 44.5798457-35.182614 77.8220057-35.182614 34.949307 0 61.822702 13.202635 80.617921 39.609415h2.097502l5.591828-34.950061h30.52326v370.005245h-38.67845v-109.276986c0-15.533445.85395-28.736835 2.563362-39.61017h-3.029222c-17.863499 25.94092-44.736139 38.911003-80.618675 38.911003zm5.825136-32.3867c25.785382 0 44.581355-6.912394 56.386411-20.737182 11.805055-13.824789 18.096051-37.124578 18.872988-69.900123v-8.621806c0-35.726243-6.057689-61.433856-18.173821-77.122838-12.116132-15.688228-31.299441-23.533097-57.551438-23.533097-22.6791464 0-40.0760305 8.854358-52.1921626 26.562318-11.9613488 17.552423-17.9412681 42.406085-17.9412681 74.560232 0 32.154902 5.9029052 56.697488 17.7087157 73.627757 11.9598387 16.776241 29.5900303 25.164739 52.890575 25.164739z" fill="#c8e8ff"/></g></g></g></svg>

<?xml version="1.0" encoding="UTF-8"?>
<svg width="1024px" height="1024px" viewBox="0 0 1024 1024" version="1.1" xmlns="http://www.w3.org/2000/svg" xmlns:xlink="http://www.w3.org/1999/xlink">
    <title>Icon-App-Name.iconset/icon_512x512@2xqbt</title>
    <defs>
        <path d="M824,256.627066 C824,246.845101 824,237.062137 823.943901,227.279173 C823.894902,219.038203 823.799902,210.799233 823.575904,202.562263 C823.091908,184.609328 822.032915,166.502394 818.839939,148.749458 C815.601963,130.740524 810.314002,113.979585 801.981064,97.6166446 C793.789124,81.5337032 783.088204,66.8167567 770.320298,54.0578032 C757.555393,41.2988496 742.834502,30.6048886 726.745621,22.4179184 C710.365742,14.0829487 693.586866,8.79696797 675.558,5.55997976 C657.803131,2.37199136 639.691265,1.31499521 621.738398,0.829996978 C613.495459,0.60699779 605.25252,0.512998132 597.007581,0.461998318 C587.219653,0.401998536 577.431726,0.406998518 567.643798,0.406998518 L453.99664,0 L368.997269,0 L257.361095,0.406998518 C247.554168,0.406998518 237.74724,0.401998536 227.940313,0.461998318 C219.678374,0.512998132 211.420435,0.60699779 203.161496,0.829996978 C185.166629,1.31499521 167.013764,2.37299136 149.216896,5.56497974 C131.164029,8.80096796 114.360154,14.0849487 97.9582749,22.4139184 C81.8353943,30.6018886 67.0825035,41.2968496 54.2905981,54.0578032 C41.5006928,66.8157567 30.7797722,81.5297032 22.5728329,97.6096446 C14.2168948,113.980585 8.91893398,130.751524 5.67295801,148.770458 C2.47698167,166.516394 1.4179895,184.617328 0.930993109,202.562263 C0.708994752,210.800233 0.612995463,219.039203 0.562995833,227.279173 C0.502996277,237.063137 0,249.216093 0,258.999057 L0,369.088656 L0,454.998343 L0.50799624,567.426934 C0.50799624,577.222898 0.503996269,587.018863 0.562995833,596.814827 C0.612995463,605.066797 0.708994752,613.316767 0.931993101,621.565737 C1.4179895,639.541672 2.47898165,657.674606 5.67795797,675.451541 C8.92293395,693.484475 14.2198947,710.269414 22.5688329,726.653354 C30.7767722,742.759296 41.4996928,757.495242 54.2905981,770.272196 C67.0815035,783.049149 81.8303943,793.75711 97.950275,801.95608 C114.362153,810.30205 131.174029,815.595031 149.237895,818.836019 C167.026764,822.029007 185.173629,823.088003 203.161496,823.573002 C211.420435,823.796001 219.679374,823.891 227.941313,823.941 C237.74824,824 247.554168,824 257.361095,824 L370.006261,824 L455.216631,824 L567.643798,824 C577.431726,824 587.219653,824 597.007581,823.941 C605.25252,823.891 613.495459,823.796001 621.738398,823.573002 C639.698265,823.087003 657.816131,822.027007 675.578999,818.832019 C693.596866,815.591031 710.367742,810.30005 726.738621,801.95908 C742.830502,793.76111 757.554393,783.051149 770.320298,770.272196 C783.086204,757.497242 793.786124,742.763296 801.978064,726.660354 C810.316002,710.268414 815.603963,693.475475 818.843939,675.430541 C822.033915,657.660606 823.091908,639.534672 823.576904,621.565737 C823.799902,613.315767 823.894902,605.065797 823.943901,596.814827 C824,587.018863 824,577.222898 824,567.426934 C824,567.426934 824,456.983336 824,454.998343 L824,368.998657 C824,367.532662 824,256.627066 824,256.627066" id="path-1"></path>
        <filter x="-2.4%" y="-1.2%" width="104.9%" height="104.9%" filterUnits="objectBoundingBox" id="filter-3">
            <feOffset dx="0" dy="10" in="SourceAlpha" result="shadowOffsetOuter1"></feOffset>
            <feGaussianBlur stdDeviation="5" in="shadowOffsetOuter1" result="shadowBlurOuter1"></feGaussianBlur>
            <feColorMatrix values="0 0 0 0 0   0 0 0 0 0   0 0 0 0 0  0 0 0 0.3 0" type="matrix" in="shadowBlurOuter1"></feColorMatrix>
        </filter>
        <linearGradient x1="50%" y1="0%" x2="50%" y2="100%" id="linearGradient-4">
            <stop stop-color="#FFFFFF" offset="0%"></stop>
            <stop stop-color="#FFFFFF" offset="100%"></stop>
        </linearGradient>
        <linearGradient x1="25.1260819%" y1="4.90093847%" x2="67.4870799%" y2="81.7059363%" id="linearGradient-5">
            <stop stop-color="#72B3F4" offset="0%"></stop>
            <stop stop-color="#346EBF" offset="100%"></stop>
        </linearGradient>
        <path d="M824,256.627066 C824,246.845101 824,237.062137 823.943901,227.279173 C823.894902,219.038203 823.799902,210.799233 823.575904,202.562263 C823.091908,184.609328 822.032915,166.502394 818.839939,148.749458 C815.601963,130.740524 810.314002,113.979585 801.981064,97.6166446 C793.789124,81.5337032 783.088204,66.8167567 770.320298,54.0578032 C757.555393,41.2988496 742.834502,30.6048886 726.745621,22.4179184 C710.365742,14.0829487 693.586866,8.79696797 675.558,5.55997976 C657.803131,2.37199136 639.691265,1.31499521 621.738398,0.829996978 C613.495459,0.60699779 605.25252,0.512998132 597.007581,0.461998318 C587.219653,0.401998536 577.431726,0.406998518 567.643798,0.406998518 L453.99664,0 L368.997269,0 L257.361095,0.406998518 C247.554168,0.406998518 237.74724,0.401998536 227.940313,0.461998318 C219.678374,0.512998132 211.420435,0.60699779 203.161496,0.829996978 C185.166629,1.31499521 167.013764,2.37299136 149.216896,5.56497974 C131.164029,8.80096796 114.360154,14.0849487 97.9582749,22.4139184 C81.8353943,30.6018886 67.0825035,41.2968496 54.2905981,54.0578032 C41.5006928,66.8157567 30.7797722,81.5297032 22.5728329,97.6096446 C14.2168948,113.980585 8.91893398,130.751524 5.67295801,148.770458 C2.47698167,166.516394 1.4179895,184.617328 0.930993109,202.562263 C0.708994752,210.800233 0.612995463,219.039203 0.562995833,227.279173 C0.502996277,237.063137 0,249.216093 0,258.999057 L0,369.088656 L0,454.998343 L0.50799624,567.426934 C0.50799624,577.222898 0.503996269,587.018863 0.562995833,596.814827 C0.612995463,605.066797 0.708994752,613.316767 0.931993101,621.565737 C1.4179895,639.541672 2.47898165,657.674606 5.67795797,675.451541 C8.92293395,693.484475 14.2198947,710.269414 22.5688329,726.653354 C30.7767722,742.759296 41.4996928,757.495242 54.2905981,770.272196 C67.0815035,783.049149 81.8303943,793.75711 97.950275,801.95608 C114.362153,810.30205 131.174029,815.595031 149.237895,818.836019 C167.026764,822.029007 185.173629,823.088003 203.161496,823.573002 C211.420435,823.796001 219.679374,823.891 227.941313,823.941 C237.74824,824 247.554168,824 257.361095,824 L370.006261,824 L455.216631,824 L567.643798,824 C577.431726,824 587.219653,824 597.007581,823.941 C605.25252,823.891 613.495459,823.796001 621.738398,823.573002 C639.698265,823.087003 657.816131,822.027007 675.578999,818.832019 C693.596866,815.591031 710.367742,810.30005 726.738621,801.95908 C742.830502,793.76111 757.554393,783.051149 770.320298,770.272196 C783.086204,757.497242 793.786124,742.763296 801.978064,726.660354 C810.316002,710.268414 815.603963,693.475475 818.843939,675.430541 C822.033915,657.660606 823.091908,639.534672 823.576904,621.565737 C823.799902,613.315767 823.894902,605.065797 823.943901,596.814827 C824,587.018863 824,577.222898 824,567.426934 C824,567.426934 824,456.983336 824,454.998343 L824,368.998657 C824,367.532662 824,256.627066 824,256.627066" id="path-6"></path>
    </defs>
    <g id="Template---Icons---App" stroke="none" stroke-width="1" fill="none" fill-rule="evenodd">
        <g id="App-Icons---@2x" transform="translate(0.000000, -590.000000)">
            <g id="512x512@2x" transform="translate(0.000000, 590.000000)">
                <g id="Artwork" transform="translate(100.000000, 100.000000)">
                    <mask id="mask-2" fill="white">
                        <use xlink:href="#path-1"></use>
                    </mask>
                    <g id="Mask">
                        <use fill="black" fill-opacity="1" filter="url(#filter-3)" xlink:href="#path-1"></use>
                        <use fill="#FFFFFF" fill-rule="evenodd" xlink:href="#path-1"></use>
                    </g>
                    <g id="Mask" mask="url(#mask-2)">
                        <use fill="url(#linearGradient-4)" xlink:href="#path-6"></use>
                        <use stroke="#DAEFFF" stroke-width="64" fill="url(#linearGradient-5)" xlink:href="#path-6"></use>
                    </g>
                    <g id="Group-11" mask="url(#mask-2)">
                        <g transform="translate(154.000000, 172.000000)" id="Group-10">
                            <path d="M404.594413,136.280703 C378.187633,136.280703 359.159862,143.892264 347.50959,159.114632 C335.859317,174.182217 330.034181,199.657277 330.034181,235.539058 C330.034181,271.42084 336.014856,297.129208 347.975449,312.662652 C359.936043,328.040558 379.119353,335.729134 405.525378,335.729134 C429.292537,335.729134 447.000498,327.108084 458.65077,309.865983 C470.300287,292.468344 476.125423,267.538422 476.125423,235.073199 C476.125423,201.831038 470.300287,177.055145 458.65077,160.745519 C447.000498,144.435893 428.98146,136.280703 404.594413,136.280703 M410.186242,103.894003 C443.738724,103.894003 469.757413,115.388737 488.24231,138.37745 C506.881991,161.212134 516.200698,193.598834 516.200698,235.539058 C516.200698,277.479283 506.803467,310.09929 488.008248,333.399835 C469.368567,356.544841 443.428402,368.116589 410.186242,368.116589 C393.565539,368.116589 378.342416,365.087367 364.518383,359.029678 C350.848378,352.816452 339.354399,343.340696 330.034181,330.603165 L327.238267,330.603165 L319.083831,363.45648 L291.354976,363.45648 L291.354976,0.907258065 L330.034181,0.907258065 L330.034181,88.9827117 C330.034181,108.70965 329.412783,126.417611 328.169987,142.106594 L330.034936,142.106594 C348.053219,116.631533 374.77032,103.894003 410.186242,103.894003" id="Fill-6" fill="#FFFFFF"></path>
                            <path d="M105.648203,368.116438 C72.7178739,368.116438 47.010261,356.54469 28.5253638,333.400439 C10.0404666,310.254678 0.798018044,277.944992 0.798018044,236.470627 C0.798018044,194.686696 10.1182358,162.066689 28.7586713,138.610606 C47.3983517,115.155278 73.338517,103.427992 106.580677,103.427992 C141.529984,103.427992 168.403379,116.630627 187.198598,143.037407 L189.2961,143.037407 L194.887928,108.087346 L225.411188,108.087346 L225.411188,478.092591 L186.732738,478.092591 L186.732738,368.815605 C186.732738,353.28216 187.586688,340.07877 189.2961,329.205435 L186.266878,329.205435 C168.403379,355.146355 141.530739,368.116438 105.648203,368.116438 L105.648203,368.116438 Z M111.473339,335.729738 C137.258721,335.729738 156.054694,328.817344 167.85975,314.992556 C179.664805,301.167767 185.955801,277.867978 186.732738,245.092433 L186.732738,236.470627 C186.732738,200.744384 180.675049,175.036771 168.558917,159.347789 C156.442785,143.659561 137.259476,135.814692 111.007479,135.814692 C88.3283326,135.814692 70.9314485,144.66905 58.8153164,162.37701 C46.8539676,179.929433 40.8740483,204.783095 40.8740483,236.937242 C40.8740483,269.092144 46.7769535,293.63473 58.582764,310.564999 C70.5426027,327.34124 88.1727943,335.729738 111.473339,335.729738 L111.473339,335.729738 Z" id="Fill-8" fill="#C8E8FF"></path>
                        </g>
                    </g>
                    <g id="Group" mask="url(#mask-2)">
                        <g></g>
                    </g>
                </g>
            </g>
        </g>
    </g>
</svg>
